resources/haticons/SVG/podcast.svg

<!-- Generated by IcoMoon.io -->
<svg version="1.1" xmlns="http://www.w3.org/2000/svg" width="24" height="24" viewBox="0 0 24 24">
<title>podcast</title>
<path d="M24 12c0-6.627-5.373-12-12-12s-12 5.373-12 12c0 5.158 3.254 9.555 7.821 11.252l-0.321 0.748h9l-0.321-0.748c4.567-1.697 7.821-6.094 7.821-11.252zM11.409 14.879c-0.535-0.229-0.909-0.76-0.909-1.379 0-0.828 0.672-1.5 1.5-1.5s1.5 0.672 1.5 1.5c0 0.619-0.374 1.149-0.909 1.379l-0.591-1.379-0.591 1.379zM12.616 14.937c1.362-0.284 2.384-1.491 2.384-2.937 0-1.657-1.343-3-3-3s-3 1.343-3 3c0 1.446 1.023 2.651 2.385 2.935l-1.749 4.081c-2.138-0.918-3.636-3.042-3.636-5.516 0-3.314 2.686-6.281 6-6.281s6 2.968 6 6.281c0 2.474-1.498 4.598-3.636 5.516l-1.748-4.079zM16.136 23.149l-1.733-4.043c2.964-1.002 5.097-3.805 5.097-7.107 0-4.142-3.358-7.5-7.5-7.5s-7.5 3.358-7.5 7.5c0 3.302 2.134 6.105 5.097 7.107l-1.733 4.043c-3.74-1.605-6.361-5.321-6.361-9.649 0-5.797 4.699-10.777 10.496-10.777s10.496 4.981 10.496 10.777c0 4.328-2.62 8.044-6.361 9.649z"></path>
</svg>

<svg xmlns="http://www.w3.org/2000/svg" width="24" height="24"><path d="M24 12c0-6.627-5.373-12-12-12S0 5.373 0 12c0 5.158 3.254 9.555 7.821 11.252L7.5 24h9l-.321-.748C20.746 21.555 24 17.158 24 12zm-12.591 2.879A1.499 1.499 0 0 1 12 12a1.5 1.5 0 0 1 .591 2.879L12 13.5l-.591 1.379zm1.207.058a3 3 0 1 0-1.231-.002l-1.749 4.081A6.002 6.002 0 0 1 6 13.5c0-3.314 2.686-6.281 6-6.281s6 2.968 6 6.281a6.002 6.002 0 0 1-3.636 5.516l-1.748-4.079zm3.52 8.212l-1.733-4.043a7.5 7.5 0 1 0-4.806 0l-1.733 4.043A10.499 10.499 0 0 1 1.503 13.5c0-5.797 4.699-10.777 10.496-10.777S22.495 7.704 22.495 13.5c0 4.328-2.62 8.044-6.361 9.649z"/></svg>
